X:17
T:Russian Travellers. Pn1801.17
Q:1/4=100
M:2/4
L:1/8
C:"457"
W:Turn your Partner with right hand .| turn back again with left hand :|
W:lead down the middle, up again and cast off :|.
W:Hands 6 half round and back again. :||:
B:Preston 24 for 1801
Z:Village Music Project, John Adams, 2017
K:Bb
dBBc|dBBc| dd/e/ cc/d/|BB/c/ Bc|dBBc|dBBc|dd/e/ cc/d/| B2B2:|
fdbg|f/g/f/e/ dc|Bcd=e|fFF2|fdbg|f/g/f/e/ dc|Bcd=e|f2FB/c/|
dBBc|dBBc|dd/e/ cc/d/|BB/c/Bc|dBBc|dBBc|dd/e/cc/d/|B2B2|
|:dfed|egfe|cedc|dfed|bbbf|ggge|dcBA|BB B2:|
